icons/actions/16/color-gradient.svg

<?xml version="1.0"?>
<!-- Created with Inkscape (http://www.inkscape.org/) -->
<svg xmlns:dc="http://purl.org/dc/elements/1.1/" xmlns:cc="http://creativecommons.org/ns#" xmlns:rdf="http://www.w3.org/1999/02/22-rdf-syntax-ns#" xmlns:svg="http://www.w3.org/2000/svg" xmlns="http://www.w3.org/2000/svg" xmlns:xlink="http://www.w3.org/1999/xlink" xmlns:sodipodi="http://sodipodi.sourceforge.net/DTD/sodipodi-0.dtd" xmlns:inkscape="http://www.inkscape.org/namespaces/inkscape" width="16" height="16" id="svg3049" version="1.1" inkscape:version="0.48.4 r9939" sodipodi:docname="sc_interactivegradient.svg" inkscape:export-filename="/home/uri/.kde/share/icons/NITRUX-KDE/16x16/actions/view-right-new.png" inkscape:export-xdpi="30" inkscape:export-ydpi="30">
  <defs id="defs3051">
    <style type="text/css" id="current-color-scheme">
      .ColorScheme-Text {
        color:#4d4d4d;
      }
      .ColorScheme-Background {
        color:#eff0f1;
      }
      .ColorScheme-Highlight {
        color:#3daee9;
      }
      .ColorScheme-ViewText {
        color:#31363b;
      }
      .ColorScheme-ViewBackground {
        color:#fcfcfc;
      }
      .ColorScheme-ViewHover {
        color:#93cee9;
      }
      .ColorScheme-ViewFocus{
        color:#3daee9;
      }
      .ColorScheme-ButtonText {
        color:#31363b;
      }
      .ColorScheme-ButtonBackground {
        color:#eff0f1;
      }
      .ColorScheme-ButtonHover {
        color:#93cee9;
      }
      .ColorScheme-ButtonFocus{
        color:#3daee9;
      }
      </style>
    <linearGradient id="linearGradient4172-7" inkscape:collect="always">
      <stop id="stop4174-2" offset="0" style="stop-color:#1d99f3;stop-opacity:1"/>
      <stop id="stop4176-0" offset="1" style="stop-color:#cae7fc;stop-opacity:1"/>
    </linearGradient>
    <linearGradient inkscape:collect="always" xlink:href="#linearGradient4172-7" id="linearGradient9212" gradientUnits="userSpaceOnUse" gradientTransform="matrix(0.57142857,0,0,0.57143056,3.3809517,447.62954)" x1="3" y1="1049.3622" x2="19" y2="1033.3622"/>
  </defs>
  <sodipodi:namedview id="base" pagecolor="#ffffff" bordercolor="#666666" borderopacity="1.0" inkscape:pageopacity="0.0" inkscape:pageshadow="2" inkscape:zoom="28.124999" inkscape:cx="6.7977176" inkscape:cy="4.6647042" inkscape:document-units="px" inkscape:current-layer="layer1-6" showgrid="true" fit-margin-top="0" fit-margin-left="0" fit-margin-right="0" fit-margin-bottom="0" inkscape:window-width="1868" inkscape:window-height="1060" inkscape:window-x="50" inkscape:window-y="-3" inkscape:window-maximized="1" inkscape:showpageshadow="false" borderlayer="true" inkscape:snap-bbox="true" inkscape:snap-global="true">
    <inkscape:grid type="xygrid" id="grid4085"/>
    <sodipodi:guide position="2.0000044,14.00003" orientation="12,0" id="guide4075"/>
    <sodipodi:guide position="2.0000044,2.0000296" orientation="0,12" id="guide4077"/>
    <sodipodi:guide position="14,9" orientation="-12,0" id="guide4079"/>
    <sodipodi:guide position="14,14" orientation="0,-12" id="guide4081"/>
  </sodipodi:namedview>
  <metadata id="metadata3054">
    <rdf:RDF>
      <cc:Work rdf:about="">
        <dc:format>image/svg+xml</dc:format>
        <dc:type rdf:resource="http://purl.org/dc/dcmitype/StillImage"/>
        <dc:title/>
      </cc:Work>
    </rdf:RDF>
  </metadata>
  <g inkscape:label="Capa 1" inkscape:groupmode="layer" id="layer1" transform="translate(-421.71429,-531.79074)">
    <g transform="matrix(0.75,0,0,0.74999813,421.46429,-241.22897)" id="layer1-0" inkscape:label="Capa 1">
      <g transform="translate(6.2937501e-7,-2.041003e-4)" id="layer1-6" inkscape:label="Capa 1">
        <path inkscape:connector-curvature="0" style="fill:url(#linearGradient9212);fill-opacity:1;stroke:none" d="m 14.999999,1034.6957 -1.333333,1.3334 -8,0 0,8 -1.3333333,1.3333 0,2.6667 2.6666667,0 0,-1.3333 9.3333336,0 0,-8.0001 1.333333,0 0,-4 z" id="rect4156" sodipodi:nodetypes="ccccccccccccc"/>
        <path style="fill:currentColor;fill-opacity:1;stroke:none" d="M 10 2 L 10 5.28125 L 9 6.28125 L 8.8125 6.46875 L 8 7.28125 L 7.28125 8 L 5.28125 10 L 2 10 L 2 14 L 6 14 L 6 10.71875 L 8.71875 8 L 9.53125 7.1875 L 9.71875 7 L 10.71875 6 L 14 6 L 14 2 L 10 2 z M 11 3 L 13 3 L 13 5 L 11 5 L 11 3 z M 3 11 L 5 11 L 5 13 L 3 13 L 3 11 z " transform="matrix(1.3333333,0,0,1.3333367,0.3333327,1030.6957)" id="path4318" class="ColorScheme-Text"/>
      </g>
    </g>
  </g>
</svg>

<svg xmlns="http://www.w3.org/2000/svg" viewBox="0 0 16 16">
  <defs id="defs3051">
    <style type="text/css" id="current-color-scheme">
      .ColorScheme-Text {
        color:#4d4d4d;
      }
      </style>
  </defs>
 <path style="fill:currentColor;fill-opacity:1;stroke:none" 
     d="m10 2v3.281l-4.719 4.719h-3.281v4h4v-3.281l4.719-4.719h3.281v-4zm1 1h2v2h-2zm-8 8h2v2h-2z"
     class="ColorScheme-Text"
     />
</svg>
